X:1
T:An dro : C
R:andro
A:Bretagne
M:4/4
K:Am
"Dm"d2 ed c2 A2 | "F"d2 cB A2 d2 | "G"cded c2 A2 | "Am"d2 cB A4 :|
"Dm"d2 e2 f4 | "F"edef e4 | "F"d2 e2 f3 d | "Em"d2 c2 d2 A2 |\
"Dm"d2 e2 f4 | "F"edef e4 | "G"d2 e2 f3 d | "Am"d2 c2 d4 :|
